assets/gcpvideointelligenceapi/original.svg

<svg height="24" width="24" xmlns="http://www.w3.org/2000/svg"><path d="m16.33 4.83h-5.52l1.47 2.33h2.05v1.33h-2.92l-2.33-3.66h-7.07v4.33h1.99l1.26-2.33h2.57l.86 1.33h-2.57l-1.26 2.33h-2.85v2.59h2.85l1.26 2.41h2.57l-.86 1.34h-2.57l-1.26-2.34h-1.99v4.34h7.07l2.33-3.67h2.92v1.33h-2.05l-1.47 2.34h5.52v-6.34h-6.41l-.83 1.34h-1.84l1.26-2-1.26-2h1.84l.8 1.33h6.44z" fill="#669df6"/><path d="m22 5.93-4 2.91v6.1l4 2.95z" fill="#4285f4"/></svg>

<svg xmlns="http://www.w3.org/2000/svg" width="24" height="24"><path fill="#669df6" d="M16.33 4.83h-5.52l1.47 2.33h2.05v1.33h-2.92L9.08 4.83H2.01v4.33H4l1.26-2.33h2.57l.86 1.33H6.12l-1.26 2.33H2.01v2.59h2.85l1.26 2.41h2.57l-.86 1.34H5.26L4 14.49H2.01v4.34h7.07l2.33-3.67h2.92v1.33h-2.05l-1.47 2.34h5.52v-6.34H9.92l-.83 1.34H7.25l1.26-2-1.26-2h1.84l.8 1.33h6.44z"/><path fill="#4285f4" d="m22 5.93-4 2.91v6.1l4 2.95z"/></svg>
